X:1
T:Rothley, 86.84
T:John Goss, 1872
T:Rothley, 86.84
T:Public Domain
C:John Goss, 1872
Z:Public Domain
%%score ( 1 2 ) ( 3 4 )
L:1/8
M:4/4
K:Ab
V:1 treble 
V:2 treble 
V:3 bass 
V:4 bass 
V:1
 [CE]2 | [EA]2 [Ec]2 [Ee]3 [Ed] | [Ec]2 [GB]2 [FA]2 [=EG]2 | F2 [FA]2 [EG]2 [=DF]2 | E6 [EA]2 | %5
 [DF]3 [DF] [Fd]2 [FB]2 | [EA]2 [EG]2 [Ee]2 [A,A]2 | E4 z2 B2 x2 | [CA]6 |] %9
V:2
 x2 | x8 | x8 | F2 x6 | E6 x2 | x8 | x8 | c6 D4 | x6 |] %9
V:3
 [A,,A,]2 | [A,,C]2 A,2 [G,B,]3 [G,B,] | A,2 [=E,D]2 [F,C]2 [G,B,]2 | [A,C]2 [F,C]2 B,2 [B,,A,]2 | %4
 [E,G,]6 [C,A,]2 | [D,A,]3 [D,A,] [B,,B,]2 [B,,D]2 | [E,C]2 [D,B,]2 [C,A,]2 [F,A,]2 | %7
 [E,A,]4 [E,G,]4 x2 | [A,,A,]6 |] %9
V:4
 x2 | x2 A,2 x4 | A,2 x6 | x4 B,2 x2 | x8 | x8 | x8 | x10 | x6 |] %9

